svg/media/bell_ringing_line.svg

<?xml version="1.0" encoding="UTF-8"?>
<svg width="24px" height="24px" viewBox="0 0 24 24" version="1.1" xmlns="http://www.w3.org/2000/svg" xmlns:xlink="http://www.w3.org/1999/xlink">
    <title>bell_ringing_line</title>
    <g id="Icon" stroke="none" stroke-width="1" fill="none" fill-rule="evenodd">
        <g id="Media" transform="translate(-576.000000, -192.000000)" fill-rule="nonzero">
            <g id="bell_ringing_line" transform="translate(576.000000, 192.000000)">
                <path d="M24,0 L24,24 L0,24 L0,0 L24,0 Z M12.5935,23.2578 L12.5819,23.2595 L12.5109,23.295 L12.4919,23.2987 L12.4767,23.295 L12.4057,23.2595 C12.3958,23.2564 12.387,23.259 12.3821,23.2649 L12.378,23.2758 L12.3609,23.7031 L12.3659,23.7235 L12.3769,23.7357 L12.4805,23.8097 L12.4953,23.8136 L12.5071,23.8097 L12.6107,23.7357 L12.6233,23.7197 L12.6267,23.7031 L12.6096,23.2758 C12.6076,23.2657 12.601,23.2593 12.5935,23.2578 Z M12.8584,23.1453 L12.8445,23.1473 L12.6598,23.2397 L12.6499,23.2499 L12.6472,23.2611 L12.6651,23.6906 L12.6699,23.7034 L12.6784,23.7105 L12.8793,23.8032 C12.8914,23.8069 12.9022,23.803 12.9078,23.7952 L12.9118,23.7812 L12.8777,23.1665 C12.8753,23.1546 12.8674,23.147 12.8584,23.1453 Z M12.143,23.1473 C12.1332,23.1424 12.1222,23.1453 12.1156,23.1526 L12.1099,23.1665 L12.0758,23.7812 C12.0751,23.7927 12.0828,23.8019 12.0926,23.8046 L12.1083,23.8032 L12.3092,23.7105 L12.3186,23.7024 L12.3225,23.6906 L12.3404,23.2611 L12.3372,23.2485 L12.3278,23.2397 L12.143,23.1473 Z" id="MingCute"></path>
                <path d="M12.0001,2.99997 C15.8661,2.99997 19.0001,6.13398 19.0001,9.99997 L19.0001,13.7639 L20.8221,17.408 C21.1878,18.1394 20.656,19 19.8383,19 L4.16186,19 C3.34414,19 2.8123,18.1394 3.17799,17.408 L5.00006,13.7639 L5.00006,9.99997 C5.00006,6.13398 8.13406,2.99997 12.0001,2.99997 Z M12.0001,4.99997 C9.23863,4.99997 7.00006,7.23855 7.00006,9.99997 L7.00006,13.7639 C7.00006,14.0744 6.92777,14.3806 6.78891,14.6583 L5.61809,17 L18.382,17 L17.2112,14.6583 C17.0723,14.3806 17.0001,14.0744 17.0001,13.7639 L17.0001,9.99997 C17.0001,7.23855 14.7615,4.99997 12.0001,4.99997 Z M16.8799,2.37093 C17.2273,1.9416 17.857,1.87519 18.2863,2.2226 C19.3635,3.09428 20.2562,4.18555 20.8964,5.42921 C21.1491,5.92027 20.9559,6.52324 20.4649,6.77599 C19.9738,7.02874 19.3708,6.83556 19.1181,6.3445 C18.6062,5.34998 17.8915,4.47585 17.0282,3.77734 C16.5989,3.42993 16.5325,2.80026 16.8799,2.37093 Z M7.11999,2.37093 C7.46741,2.80026 7.401,3.42993 6.97167,3.77734 C6.11209,4.47291 5.39973,5.34264 4.88829,6.33198 C4.63467,6.82259 4.03136,7.01471 3.54075,6.76109 C3.05014,6.50747 2.85802,5.90415 3.11164,5.41355 C3.75119,4.17639 4.6409,3.09062 5.71358,2.2226 C6.14291,1.87519 6.77258,1.9416 7.11999,2.37093 Z M8.99996,20 L15,20 C15,21.1045 14.1045,22 13,22 L11,22 C9.89539,22 8.99996,21.1045 8.99996,20 Z" id="形状" fill="#09244B"></path>
            </g>
        </g>
    </g>
</svg>

<svg xmlns="http://www.w3.org/2000/svg" width="24" height="24"><g fill="none" fill-rule="nonzero"><path d="M24 0v24H0V0h24ZM12.594 23.258l-.012.002-.071.035-.02.004-.014-.004-.071-.036c-.01-.003-.019 0-.024.006l-.004.01-.017.428.005.02.01.013.104.074.015.004.012-.004.104-.074.012-.016.004-.017-.017-.427c-.002-.01-.009-.017-.016-.018Zm.264-.113-.014.002-.184.093-.01.01-.003.011.018.43.005.012.008.008.201.092c.012.004.023 0 .029-.008l.004-.014-.034-.614c-.003-.012-.01-.02-.02-.022Zm-.715.002a.023.023 0 0 0-.027.006l-.006.014-.034.614c0 .012.007.02.017.024l.015-.002.201-.093.01-.008.003-.011.018-.43-.003-.012-.01-.01-.184-.092Z"/><path fill="#09244B" d="M12 3a7 7 0 0 1 7 7v3.764l1.822 3.644A1.1 1.1 0 0 1 19.838 19H4.162a1.1 1.1 0 0 1-.984-1.592L5 13.764V10a7 7 0 0 1 7-7Zm0 2a5 5 0 0 0-5 5v3.764a2 2 0 0 1-.211.894L5.619 17h12.763l-1.17-2.342a2 2 0 0 1-.212-.894V10a5 5 0 0 0-5-5Zm4.88-2.63a1 1 0 0 1 1.406-.147 10.04 10.04 0 0 1 2.61 3.206 1 1 0 0 1-1.778.915 8.037 8.037 0 0 0-2.09-2.567 1 1 0 0 1-.148-1.406Zm-9.76 0a1 1 0 0 1-.148 1.407 8.038 8.038 0 0 0-2.084 2.555 1 1 0 1 1-1.776-.918 10.038 10.038 0 0 1 2.602-3.191 1 1 0 0 1 1.406.148ZM9 20h6a2 2 0 0 1-2 2h-2a2 2 0 0 1-2-2Z"/></g></svg>
